svg/church-center/bank.svg

<svg width="16" height="16" viewBox="0 0 16 16" fill="none" xmlns="http://www.w3.org/2000/svg">
<path fill-rule="evenodd" clip-rule="evenodd" d="M16 3.90701L8 0.185059L0 3.90701V5.40039H16V3.90701ZM15.488 13.2094H0.512V15.8151H15.488V13.2094ZM11.163 6.50768H13.763V12.0901H11.163V6.50768ZM9.302 6.50768H6.7V12.0901H9.3L9.302 6.50768ZM2.233 6.50768H4.833V12.0901H2.233V6.50768Z" fill="black"/>
</svg>

<svg id="Layer_1" data-name="Layer 1" xmlns="http://www.w3.org/2000/svg" viewBox="0 0 16 16"><title>bank</title><path d="M16,3.907,8,.186,0,3.907V5.4H16Zm-.512,9.3H.512v2.605H15.488Zm-4.325-6.7h2.6v5.581h-2.6Zm-1.861,0H6.7v5.581H9.3Zm-7.069,0h2.6v5.581h-2.6Z" fill-rule="evenodd"/></svg>
